X:1
T:Allay Pain
T:Partitura Allay Pain
T:                            Allay Pain Witch Hunter Robin 
T:Compositor: Taku Iwasaki Transcripción: H. Yamaha 
C:Taku Iwasaki
%%score { 1 | 2 }
L:1/8
Q:1/4=130
M:4/4
K:Dmin
V:1 treble nm="Piano"
V:2 bass 
V:1
 F2 A2 d2 ef | B,2 D2 A2 f2 | [Bf]2 g2 [Gf]2 e2 | c2 d2 c2 B2 | A2 dd- [Fd]2 B2- | B4 d2 ed- | %6
 d c3 F2 [CE]2- | [CE]4 F2 A2 | d2 ef- f2 z2 | z2 f2 [Bf]2 g2 | f2 [EGe]4 d2 | c2 B2 A2 dd- | %12
 [Fd]2 B6 | d2 ed- d c3 | F2 [CE]6 | [dg]2 fg- gf [Gg]2- | [Gg]4 d2 e2 | f2 !arpeggio!ff- fg d2- | %18
 d4 d2 f2 | g2 fg- gf [Gg]2- | [Gg]4 d2 d2 | a2 gg- gf a2- | a4 g4 | %23
 [!courtesy!=DF]2 !courtesy!=d2 a2 [B,FA]2 | d2 a4 a2 | [CFa]2 !arpeggio![Gb]2 [Fa]2 [CEg]2- | %26
 [CEg]2 f2 g4 | [Fd]2 d2 a2 [Fa]2 | d6 de | f2 [cf]2 f2 g2 | [Be]2 [ea]2 g2 [EB]2 | %31
 A2 !courtesy!=d2 a2 A2 | d2 a2 !arpeggio![B,EB]2 a2 | [ca]2 [db]2 [ca]2 [EBg]2- | %34
 [EBg]2 [Af]2 [Bg]4 | [Fd]2 d2 [Ca]2 a2 | d4 z2 de | !arpeggio![Bf]2 c2 f2 g2 | %38
[Q:1/4=92][Q:1/4=92]"^Andantino" G2 e2 c4 | d2 z2 z4 | z4 z2 !arpeggio![CF]2- | [CF]4 z4 | z8 | %43
 z8 |] %44
V:2
!ped! z8!ped-up! |!ped! z4 x2!ped-up!!ped! x2 | G,2 z2 z4!ped-up! |!ped! A,2 z2 z4 | %4
 D,2!ped-up!!ped! A,2 z2 G,2- | G,4!ped-up!!ped! z2 x!ped-up!!ped! x | C,2 B,2 z4 | %7
 z4!ped-up!!ped! D,2 A,2 | z2!ped-up!!ped! G,,2 D,2 B,2- | B,2 z2!ped-up!!ped! G,2 B,2 | %10
 z2!ped-up!!ped! z4 z2 | z4!ped-up!!ped! D,2 A,2 | z2 G,6!ped-up! | %13
!ped! z x x!ped-up!!ped! z C,2 B,2 | z2!ped-up!!ped! z2 z4!ped-up! | %15
!ped! _C,2 G,2!ped-up!!ped! D2 z2 | z8!ped-up!!ped! | B,2 !arpeggio!F2!ped-up!!ped! A2 z2 | %18
 z8!ped-up!!ped! | _C,2 G,2!ped-up!!ped! D2 z2 | z8!ped-up!!ped! | C,2 A,2!ped-up!!ped! F4 | %22
 _D,2 B,2 E4!ped-up! |!ped! z8!ped-up!!ped! | z8!ped-up! |!ped! z8!ped-up!!ped! | z8!ped-up! | %27
!ped! z4 z2!ped-up!!ped! B,2 | z8!ped-up! |!ped! C2 z2 z4!ped-up! | _D,2!ped! _D2 E2 z2!ped-up! | %31
!ped! !courtesy!=D,2 A,2 F2!ped-up!!ped! G,,2 | D,,2 B,2 z4!ped-up! |!ped! C,2 B,2 z4 | %34
 z8!ped-up!!ped!!ped-up! |!ped! z8!ped-up!!ped!!ped-up! |!ped! B,4 A,4!ped-up!!ped!!ped-up! | %37
!ped! G,4 z4!ped-up! |!ped! A,2 z2 z4!ped-up! |!ped! B,,2 F,2 C2 E2- | %40
 E6!ped-up!!ped! !arpeggio![B,,D,]2- | [B,,D,]4 z4 | z8!ped-up! | z8 |] %44

